; generated by Slic3r 1.37.2-prusa3d-win64 on 2017-11-19 at 19:04:19

; 

; external perimeters extrusion width = 0.45mm
; perimeters extrusion width = 0.45mm
; infill extrusion width = 0.45mm
; solid infill extrusion width = 0.45mm
; top infill extrusion width = 0.40mm
; first layer extrusion width = 0.42mm

M107
M115 U3.0.12 ; tell printer latest fw version
; Start G-Code sequence START
T0
M104 S255 ; set extruder temp
M140 S100 ; set bed temp
M190 S100 ; wait for bed temp
M109 S255 ; wait for extruder temp
G21 ; set units to millimeters
G90 ; use absolute coordinates
M83 ; use relative distances for extrusion
G28 W
G80
G92 E0.0
M203 E100
M92 E140
G92 E0.0
M900 K200
; Filament gcode

; Filament gcode

; Filament gcode

; Filament gcode

G21 ; set units to millimeters
G90 ; use absolute coordinates
M83 ; use relative distances for extrusion
G1 Z0.250 F7200.000
G1 X50.0 E80.0  F1000.0
G1 X160.0 E20.0  F1000.0
G1 Z0.200 F7200.000
G1 X220.0 E13 F1000.0
G1 X240.0 E0 F1000.0
G1 E-4 F1000.0
;BEFORE_LAYER_CHANGE
;0.2


G1 Z0.200 F7200.000
;AFTER_LAYER_CHANGE
;0.2
G1 E-4.00000 F3000.00000
G1 Z0.700 F7200.000
G1 X117.061 Y98.921 F7200.000
G1 Z0.200 F7200.000
G1 E4.00000 F3000.00000
M204 S1000
G1 F2100
G1 X117.508 Y98.104 E0.02922
G1 X117.947 Y97.636 E0.02011
G1 X118.472 Y97.267 E0.02011
G1 X119.061 Y97.013 E0.02011
G1 X119.690 Y96.884 E0.02011
G1 X130.004 Y96.869 E0.32341
G1 X131.079 Y97.061 E0.03423
G1 X132.026 Y97.612 E0.03436
G1 X132.725 Y98.457 E0.03436
G1 X133.089 Y99.490 E0.03436
G1 X133.128 Y110.149 E0.33418
G1 X132.942 Y111.071 E0.02950
G1 X132.492 Y111.896 E0.02950
G1 X132.020 Y112.393 E0.02148
G1 X131.447 Y112.777 E0.02161
G1 X130.809 Y113.025 E0.02148
G1 X130.127 Y113.129 E0.02161
G1 X119.834 Y113.127 E0.32274
G1 X118.921 Y112.939 E0.02922
G1 X118.104 Y112.492 E0.02922
G1 X117.607 Y112.020 E0.02148
G1 X117.223 Y111.447 E0.02161
G1 X116.975 Y110.809 E0.02148
G1 X116.871 Y110.127 E0.02161
G1 X116.873 Y99.834 E0.32274
G1 X117.049 Y98.980 E0.02734
G1 X117.416 Y99.055 F7200.000
G1 F2100
G1 X117.833 Y98.300 E0.02707
G1 X118.223 Y97.896 E0.01758
G1 X118.689 Y97.578 E0.01771
G1 X119.211 Y97.361 E0.01771
G1 X119.762 Y97.256 E0.01758
G1 X130.004 Y97.246 E0.32114
G1 X130.959 Y97.418 E0.03044
G1 X131.799 Y97.914 E0.03056
G1 X132.410 Y98.668 E0.03044
G1 X132.724 Y99.591 E0.03056
G1 X132.751 Y110.127 E0.33036
G1 X132.582 Y110.959 E0.02663
G1 X132.167 Y111.700 E0.02663
G1 X131.749 Y112.128 E0.01873
G1 X131.245 Y112.457 E0.01886
G1 X130.682 Y112.668 E0.01886
G1 X130.091 Y112.753 E0.01873
G1 X119.865 Y112.751 E0.32063
G1 X119.037 Y112.580 E0.02651
G1 X118.300 Y112.167 E0.02651
G1 X117.872 Y111.749 E0.01873
G1 X117.543 Y111.245 E0.01886
G1 X117.332 Y110.682 E0.01886
G1 X117.247 Y110.091 E0.01873
G1 X117.249 Y99.865 E0.32063
G1 X117.404 Y99.114 E0.02403
G1 X118.896 Y97.895 F7200.000
G1 F2100
G1 X119.824 Y97.629 E0.03024
G1 X130.004 Y97.623 E0.31918
G1 X130.839 Y97.776 E0.02661
G1 X131.566 Y98.212 E0.02661
G1 X132.095 Y98.876 E0.02661
G1 X132.356 Y99.687 E0.02673
G1 X132.375 Y110.103 E0.32657
G1 X132.224 Y110.839 E0.02355
G1 X131.849 Y111.494 E0.02367
G1 X131.486 Y111.856 E0.01609
G1 X131.053 Y112.131 E0.01609
G1 X130.571 Y112.308 E0.01609
G1 X130.062 Y112.376 E0.01609
G1 X119.893 Y112.375 E0.31883
G1 X119.158 Y112.223 E0.02355
G1 X118.506 Y111.849 E0.02355
G1 X118.144 Y111.486 E0.01609
G1 X117.869 Y111.053 E0.01609
G1 X117.692 Y110.571 E0.01609
G1 X117.624 Y110.062 E0.01609
G1 X117.625 Y99.893 E0.31883
G1 X117.777 Y99.158 E0.02355
G1 X118.151 Y98.506 E0.02355
G1 X118.850 Y97.933 E0.02836
G1 E-2.40000 F3000.00000
G1 F5760
G1 X119.824 Y97.629 E-0.50464
G1 F5760
G1 X121.876 Y97.628 E-1.01536
G1 E-0.08000 F3000.00000
G1 Z0.700 F7200.000
G1 X120.587 Y100.587 F7200.000
G1 Z0.200 F7200.000
G1 E4.00000 F3000.00000
G1 F840
G1 X129.413 Y100.587 E0.27673
G1 X129.413 Y109.413 E0.27673
G1 X120.587 Y109.413 E0.27673
G1 X120.587 Y100.647 E0.27485
G1 X120.210 Y100.210 F7200.000
G1 F840
G1 X129.790 Y100.210 E0.30037
G1 X129.790 Y109.790 E0.30037
G1 X120.210 Y109.790 E0.30037
G1 X120.210 Y100.270 E0.29849
G1 X120.596 Y100.314 F7200.000
G1 E-2.40000 F3000.00000
G1 F5760
G1 X123.282 Y100.251 E-1.52000
G1 E-0.08000 F3000.00000
G1 Z0.700 F7200.000
G1 X121.472 Y109.300 F7200.000
G1 Z0.200 F7200.000
G1 E4.00000 F3000.00000
G1 F1680
G1 X120.870 Y108.698 E0.02704
G1 X120.870 Y108.158 E0.01713
G1 X121.842 Y109.130 E0.04365
G1 X122.382 Y109.130 E0.01713
G1 X120.870 Y107.618 E0.06788
G1 X120.870 Y107.078 E0.01713
G1 X122.922 Y109.130 E0.09211
G1 X123.462 Y109.130 E0.01713
G1 X120.870 Y106.538 E0.11635
G1 X120.870 Y105.998 E0.01713
G1 X124.002 Y109.130 E0.14058
G1 X124.541 Y109.130 E0.01713
G1 X120.870 Y105.459 E0.16481
G1 X120.870 Y104.919 E0.01713
G1 X125.081 Y109.130 E0.18904
G1 X125.621 Y109.130 E0.01713
G1 X120.870 Y104.379 E0.21327
G1 X120.870 Y103.839 E0.01713
G1 X126.161 Y109.130 E0.23750
G1 X126.701 Y109.130 E0.01713
G1 X120.870 Y103.299 E0.26174
G1 X120.870 Y102.759 E0.01713
G1 X127.241 Y109.130 E0.28597
G1 X127.780 Y109.130 E0.01713
G1 X120.870 Y102.220 E0.31020
G1 X120.870 Y101.680 E0.01713
G1 X128.320 Y109.130 E0.33443
G1 X128.860 Y109.130 E0.01713
G1 X120.870 Y101.140 E0.35866
G1 X120.870 Y100.870 E0.00857
G1 X121.140 Y100.870 E0.00857
G1 X129.130 Y108.860 E0.35867
G1 X129.130 Y108.320 E0.01713
G1 X121.680 Y100.870 E0.33444
G1 X122.219 Y100.870 E0.01713
G1 X129.130 Y107.781 E0.31021
G1 X129.130 Y107.241 E0.01713
G1 X122.759 Y100.870 E0.28597
G1 X123.299 Y100.870 E0.01713
G1 X129.130 Y106.701 E0.26174
G1 X129.130 Y106.161 E0.01713
G1 X123.839 Y100.870 E0.23751
G1 X124.379 Y100.870 E0.01713
G1 X129.130 Y105.621 E0.21328
G1 X129.130 Y105.081 E0.01713
G1 X124.919 Y100.870 E0.18905
G1 X125.458 Y100.870 E0.01713
G1 X129.130 Y104.542 E0.16481
G1 X129.130 Y104.002 E0.01713
G1 X125.998 Y100.870 E0.14058
G1 X126.538 Y100.870 E0.01713
G1 X129.130 Y103.462 E0.11635
G1 X129.130 Y102.922 E0.01713
G1 X127.078 Y100.870 E0.09212
G1 X127.618 Y100.870 E0.01713
G1 X129.130 Y102.382 E0.06789
G1 X129.130 Y101.842 E0.01713
G1 X128.158 Y100.870 E0.04366
G1 X128.697 Y100.870 E0.01713
G1 X129.300 Y101.472 E0.02704
;BEFORE_LAYER_CHANGE
;0.4


G1 Z0.400 F7200.000
;AFTER_LAYER_CHANGE
;0.4
G1 E-4.00000 F3000.00000
G1 Z0.900 F7200.000
G1 X133.089 Y99.490 F7200.000
G1 Z0.400 F7200.000
G1 E4.00000 F3000.00000
G1 F3000
G1 X133.128 Y110.149 E0.33418
G1 X132.942 Y111.071 E0.02950
G1 X132.492 Y111.896 E0.02950
G1 X132.020 Y112.393 E0.02148
G1 X131.447 Y112.777 E0.02161
G1 X130.809 Y113.025 E0.02148
G1 X130.127 Y113.129 E0.02161
G1 X119.834 Y113.127 E0.32274
G1 X118.921 Y112.939 E0.02922
G1 X118.104 Y112.492 E0.02922
G1 X117.607 Y112.020 E0.02148
G1 X117.223 Y111.447 E0.02161
G1 X116.975 Y110.809 E0.02148
G1 X116.871 Y110.127 E0.02161
G1 X116.873 Y99.834 E0.32274
G1 X117.061 Y98.921 E0.02922
G1 X117.508 Y98.104 E0.02922
G1 X117.947 Y97.636 E0.02011
G1 X118.472 Y97.267 E0.02011
G1 X119.061 Y97.013 E0.02011
G1 X119.690 Y96.884 E0.02011
G1 X130.004 Y96.869 E0.32341
G1 X131.079 Y97.061 E0.03423
G1 X132.026 Y97.612 E0.03436
G1 X132.725 Y98.457 E0.03436
G1 X133.070 Y99.434 E0.03248
G1 E-2.40000 F3000.00000
G1 F5760
G1 X133.086 Y102.506 E-1.52000
G1 E-0.08000 F3000.00000
G1 Z0.900 F7200.000
G1 X129.368 Y100.632 F7200.000
G1 Z0.400 F7200.000
G1 E4.00000 F3000.00000
M204 S800
G1 F1200
G1 X129.368 Y109.368 E0.29570
G1 X120.632 Y109.368 E0.29570
G1 X120.632 Y100.632 E0.29570
G1 X129.308 Y100.632 E0.29367
M204 S1000
G1 X129.775 Y100.225 F7200.000
M204 S800
G1 F1200
G1 X129.775 Y109.775 E0.32326
G1 X120.225 Y109.775 E0.32326
G1 X120.225 Y100.225 E0.32326
G1 X129.715 Y100.225 E0.32123
M204 S1000
G1 X129.671 Y100.611 F7200.000
G1 E-2.40000 F3000.00000
G1 F5760
G1 X129.734 Y103.297 E-1.52000
G1 E-0.08000 F3000.00000
G1 Z0.900 F7200.000
G1 X121.596 Y100.754 F7200.000
G1 Z0.400 F7200.000
G1 E4.00000 F3000.00000
M204 S2000
G1 F2400
G1 X120.937 Y101.413 E0.03223
G1 X120.937 Y102.001 E0.02036
G1 X122.001 Y100.937 E0.05206
G1 X122.590 Y100.937 E0.02036
G1 X120.937 Y102.590 E0.08085
G1 X120.937 Y103.178 E0.02036
G1 X123.178 Y100.937 E0.10964
G1 X123.767 Y100.937 E0.02036
G1 X120.937 Y103.767 E0.13843
G1 X120.937 Y104.355 E0.02036
G1 X124.355 Y100.937 E0.16722
G1 X124.944 Y100.937 E0.02036
G1 X120.937 Y104.944 E0.19601
G1 X120.937 Y105.532 E0.02036
G1 X125.532 Y100.937 E0.22481
G1 X126.120 Y100.937 E0.02036
G1 X120.937 Y106.120 E0.25360
G1 X120.937 Y106.709 E0.02036
G1 X126.709 Y100.937 E0.28239
G1 X127.297 Y100.937 E0.02036
G1 X120.937 Y107.297 E0.31118
G1 X120.937 Y107.886 E0.02036
G1 X127.886 Y100.937 E0.33997
G1 X128.474 Y100.937 E0.02036
G1 X120.937 Y108.474 E0.36876
G1 X120.937 Y109.063 E0.02036
G1 X129.063 Y100.937 E0.39756
G1 X129.063 Y101.526 E0.02036
G1 X121.526 Y109.063 E0.36877
G1 X122.114 Y109.063 E0.02036
G1 X129.063 Y102.114 E0.33998
G1 X129.063 Y102.703 E0.02036
G1 X122.703 Y109.063 E0.31119
G1 X123.291 Y109.063 E0.02036
G1 X129.063 Y103.291 E0.28240
G1 X129.063 Y103.879 E0.02036
G1 X123.879 Y109.063 E0.25360
G1 X124.468 Y109.063 E0.02036
G1 X129.063 Y104.468 E0.22481
G1 X129.063 Y105.056 E0.02036
G1 X125.056 Y109.063 E0.19602
G1 X125.645 Y109.063 E0.02036
G1 X129.063 Y105.645 E0.16723
G1 X129.063 Y106.233 E0.02036
G1 X126.233 Y109.063 E0.13844
G1 X126.822 Y109.063 E0.02036
G1 X129.063 Y106.822 E0.10965
G1 X129.063 Y107.410 E0.02036
G1 X127.410 Y109.063 E0.08086
G1 X127.999 Y109.063 E0.02036
G1 X129.063 Y107.999 E0.05206
G1 X129.063 Y108.587 E0.02036
G1 X128.404 Y109.246 E0.03224
M204 S1000
;BEFORE_LAYER_CHANGE
;0.6


G1 Z0.600 F7200.000
;AFTER_LAYER_CHANGE
;0.6
G1 E-4.00000 F3000.00000
G1 Z1.100 F7200.000
G1 X132.725 Y98.457 F7200.000
G1 Z0.600 F7200.000
G1 E4.00000 F3000.00000
G1 F3000
G1 X133.089 Y99.490 E0.03436
G1 X133.128 Y110.149 E0.33418
G1 X132.942 Y111.071 E0.02950
G1 X132.492 Y111.896 E0.02950
G1 X132.020 Y112.393 E0.02148
G1 X131.447 Y112.777 E0.02161
G1 X130.809 Y113.025 E0.02148
G1 X130.127 Y113.129 E0.02161
G1 X119.834 Y113.127 E0.32274
G1 X118.921 Y112.939 E0.02922
G1 X118.104 Y112.492 E0.02922
G1 X117.607 Y112.020 E0.02148
G1 X117.223 Y111.447 E0.02161
G1 X116.975 Y110.809 E0.02148
G1 X116.871 Y110.127 E0.02161
G1 X116.873 Y99.834 E0.32274
G1 X117.061 Y98.921 E0.02922
G1 X117.508 Y98.104 E0.02922
G1 X117.947 Y97.636 E0.02011
G1 X118.472 Y97.267 E0.02011
G1 X119.061 Y97.013 E0.02011
G1 X119.690 Y96.884 E0.02011
G1 X130.004 Y96.869 E0.32341
G1 X131.079 Y97.061 E0.03423
G1 X132.026 Y97.612 E0.03436
G1 X132.686 Y98.411 E0.03248
G1 E-2.40000 F3000.00000
G1 F5760
G1 X133.089 Y99.490 E-0.57025
G1 F5760
G1 X133.096 Y101.410 E-0.94975
G1 E-0.08000 F3000.00000
G1 Z1.100 F7200.000
G1 X129.368 Y100.632 F7200.000
G1 Z0.600 F7200.000
G1 E4.00000 F3000.00000
M204 S800
G1 F1200
G1 X129.368 Y109.368 E0.29570
G1 X120.632 Y109.368 E0.29570
G1 X120.632 Y100.632 E0.29570
G1 X129.308 Y100.632 E0.29367
M204 S1000
G1 X129.775 Y100.225 F7200.000
M204 S800
G1 F1200
G1 X129.775 Y109.775 E0.32326
G1 X120.225 Y109.775 E0.32326
G1 X120.225 Y100.225 E0.32326
G1 X129.715 Y100.225 E0.32123
M204 S1000
G1 X129.671 Y100.611 F7200.000
G1 X129.246 Y101.596 F7200.000
M204 S2000
G1 F2400
G1 X128.587 Y100.937 E0.03224
G1 X127.999 Y100.937 E0.02036
G1 X129.063 Y102.001 E0.05206
G1 X129.063 Y102.590 E0.02036
G1 X127.410 Y100.937 E0.08086
G1 X126.822 Y100.937 E0.02036
G1 X129.063 Y103.178 E0.10965
G1 X129.063 Y103.767 E0.02036
G1 X126.233 Y100.937 E0.13844
G1 X125.645 Y100.937 E0.02036
G1 X129.063 Y104.355 E0.16723
G1 X129.063 Y104.944 E0.02036
G1 X125.056 Y100.937 E0.19602
G1 X124.468 Y100.937 E0.02036
G1 X129.063 Y105.532 E0.22481
G1 X129.063 Y106.121 E0.02036
G1 X123.879 Y100.937 E0.25360
G1 X123.291 Y100.937 E0.02036
G1 X129.063 Y106.709 E0.28240
G1 X129.063 Y107.297 E0.02036
G1 X122.703 Y100.937 E0.31119
G1 X122.114 Y100.937 E0.02036
G1 X129.063 Y107.886 E0.33998
G1 X129.063 Y108.474 E0.02036
G1 X121.526 Y100.937 E0.36877
G1 X120.937 Y100.937 E0.02036
G1 X129.063 Y109.063 E0.39756
G1 X128.474 Y109.063 E0.02036
G1 X120.937 Y101.526 E0.36876
G1 X120.937 Y102.114 E0.02036
G1 X127.886 Y109.063 E0.33997
G1 X127.297 Y109.063 E0.02036
G1 X120.937 Y102.703 E0.31118
G1 X120.937 Y103.291 E0.02036
G1 X126.709 Y109.063 E0.28239
G1 X126.120 Y109.063 E0.02036
G1 X120.937 Y103.880 E0.25360
G1 X120.937 Y104.468 E0.02036
G1 X125.532 Y109.063 E0.22481
G1 X124.944 Y109.063 E0.02036
G1 X120.937 Y105.056 E0.19601
G1 X120.937 Y105.645 E0.02036
G1 X124.355 Y109.063 E0.16722
G1 X123.767 Y109.063 E0.02036
G1 X120.937 Y106.233 E0.13843
G1 X120.937 Y106.822 E0.02036
G1 X123.178 Y109.063 E0.10964
G1 X122.590 Y109.063 E0.02036
G1 X120.937 Y107.410 E0.08085
G1 X120.937 Y107.999 E0.02036
G1 X122.001 Y109.063 E0.05206
G1 X121.413 Y109.063 E0.02036
G1 X120.754 Y108.404 E0.03223
M204 S1000
;BEFORE_LAYER_CHANGE
;0.8


G1 Z0.800 F7200.000
;AFTER_LAYER_CHANGE
;0.8
G1 X120.632 Y109.368 F7200.000
M204 S800
G1 F1200
G1 X120.632 Y100.632 E0.29570
G1 X129.368 Y100.632 E0.29570
G1 X129.368 Y109.368 E0.29570
G1 X120.692 Y109.368 E0.29367
M204 S1000
G1 X120.225 Y109.775 F7200.000
M204 S800
G1 F1200
G1 X120.225 Y100.225 E0.32326
G1 X129.775 Y100.225 E0.32326
G1 X129.775 Y109.775 E0.32326
G1 X120.285 Y109.775 E0.32123
M204 S1000
G1 X120.329 Y109.389 F7200.000
G1 E-2.40000 F3000.00000
G1 F5760
G1 X120.266 Y106.703 E-1.52000
G1 E-0.08000 F3000.00000
G1 Z1.300 F7200.000
G1 X128.404 Y109.246 F7200.000
G1 Z0.800 F7200.000
G1 E4.00000 F3000.00000
M204 S2000
G1 F2400
G1 X129.063 Y108.587 E0.03224
G1 X129.063 Y107.999 E0.02036
G1 X127.999 Y109.063 E0.05206
G1 X127.410 Y109.063 E0.02036
G1 X129.063 Y107.410 E0.08086
G1 X129.063 Y106.822 E0.02036
G1 X126.822 Y109.063 E0.10965
G1 X126.233 Y109.063 E0.02036
G1 X129.063 Y106.233 E0.13844
G1 X129.063 Y105.645 E0.02036
G1 X125.645 Y109.063 E0.16723
G1 X125.056 Y109.063 E0.02036
G1 X129.063 Y105.056 E0.19602
G1 X129.063 Y104.468 E0.02036
G1 X124.468 Y109.063 E0.22481
G1 X123.879 Y109.063 E0.02036
G1 X129.063 Y103.879 E0.25360
G1 X129.063 Y103.291 E0.02036
G1 X123.291 Y109.063 E0.28240
G1 X122.703 Y109.063 E0.02036
G1 X129.063 Y102.703 E0.31119
G1 X129.063 Y102.114 E0.02036
G1 X122.114 Y109.063 E0.33998
G1 X121.526 Y109.063 E0.02036
G1 X129.063 Y101.526 E0.36877
G1 X129.063 Y100.937 E0.02036
G1 X120.937 Y109.063 E0.39756
G1 X120.937 Y108.474 E0.02036
G1 X128.474 Y100.937 E0.36876
G1 X127.886 Y100.937 E0.02036
G1 X120.937 Y107.886 E0.33997
G1 X120.937 Y107.297 E0.02036
G1 X127.297 Y100.937 E0.31118
G1 X126.709 Y100.937 E0.02036
G1 X120.937 Y106.709 E0.28239
G1 X120.937 Y106.120 E0.02036
G1 X126.120 Y100.937 E0.25360
G1 X125.532 Y100.937 E0.02036
G1 X120.937 Y105.532 E0.22481
G1 X120.937 Y104.944 E0.02036
G1 X124.944 Y100.937 E0.19601
G1 X124.355 Y100.937 E0.02036
G1 X120.937 Y104.355 E0.16722
G1 X120.937 Y103.767 E0.02036
G1 X123.767 Y100.937 E0.13843
G1 X123.178 Y100.937 E0.02036
G1 X120.937 Y103.178 E0.10964
G1 X120.937 Y102.590 E0.02036
G1 X122.590 Y100.937 E0.08085
G1 X122.001 Y100.937 E0.02036
G1 X120.937 Y102.001 E0.05206
G1 X120.937 Y101.413 E0.02036
G1 X121.596 Y100.754 E0.03223
M204 S1000
;BEFORE_LAYER_CHANGE
;1


G1 Z1.000 F7200.000
;AFTER_LAYER_CHANGE
;1
G1 X120.632 Y100.632 F7200.000
M204 S800
G1 F1200
G1 X129.368 Y100.632 E0.29570
G1 X129.368 Y109.368 E0.29570
G1 X120.632 Y109.368 E0.29570
G1 X120.632 Y100.692 E0.29367
M204 S1000
G1 X120.225 Y100.225 F7200.000
M204 S800
G1 F1200
G1 X129.775 Y100.225 E0.32326
G1 X129.775 Y109.775 E0.32326
G1 X120.225 Y109.775 E0.32326
G1 X120.225 Y100.285 E0.32123
M204 S1000
G1 X120.611 Y100.329 F7200.000
G1 E-2.40000 F3000.00000
G1 F5760
G1 X123.297 Y100.266 E-1.52000
G1 E-0.08000 F3000.00000
G1 Z1.500 F7200.000
G1 X125.406 Y100.754 F7200.000
G1 Z1.000 F7200.000
G1 E4.00000 F3000.00000
M204 S2000
G1 F3600
G1 X123.130 Y109.246 E0.29757
M204 S1000
G1 X121.610 Y109.246 F7200.000
M204 S2000
G1 F3600
G1 X120.937 Y108.573 E0.03221
G1 X120.937 Y100.937 E0.25845
G1 X121.937 Y100.937 E0.03385
G1 X129.246 Y108.246 E0.34985
M204 S1000
G1 E-2.40000 F3000.00000
G1 F5760
G1 X127.074 Y106.074 E-1.52000
G1 E-0.08000 F3000.00000
G1 Z1.500 F7200.000
G1 X129.246 Y104.594 F7200.000
G1 Z1.000 F7200.000
G1 E4.00000 F3000.00000
M204 S2000
G1 F3600
G1 X120.754 Y106.870 E0.29757
